assets/icons/quiz-puzzle.svg

<svg width="32" height="32" viewBox="0 0 32 32" fill="none" xmlns="http://www.w3.org/2000/svg">
<rect width="32" height="32" rx="4" fill="#FFEB98"/>
<path d="M10.2266 12.4414C10.2266 11.8891 10.6743 11.4414 11.2266 11.4414H20.7656C21.3179 11.4414 21.7656 11.8891 21.7656 12.4414V21.9805C21.7656 22.5328 21.3179 22.9805 20.7656 22.9805H11.2266C10.6743 22.9805 10.2266 22.5328 10.2266 21.9805V12.4414Z" fill="#BE4C1A"/>
<path d="M20.7656 21.9805V22.9805H11.2266V21.9805H20.7656ZM20.7656 12.4414H11.2266V22.9805C10.6743 22.9805 10.2266 22.5328 10.2266 21.9805V12.4414C10.2266 11.9237 10.6199 11.4976 11.124 11.4463L11.2266 11.4414H20.7656L20.8682 11.4463C21.3723 11.4976 21.7656 11.9237 21.7656 12.4414V21.9805L21.7607 22.083C21.7094 22.5871 21.2833 22.9805 20.7656 22.9805V12.4414Z" fill="#BE4C1A"/>
<path d="M5.6875 16.7305C5.6875 15.2915 6.85401 14.125 8.29297 14.125C9.73193 14.125 10.8984 15.2915 10.8984 16.7305C10.8984 18.1694 9.73193 19.3359 8.29297 19.3359C6.85401 19.3359 5.6875 18.1694 5.6875 16.7305Z" fill="#BE4C1A"/>
<path d="M21.1094 16.6016C21.1094 15.1626 22.2759 13.9961 23.7148 13.9961C25.1538 13.9961 26.3203 15.1626 26.3203 16.6016C26.3203 18.0405 25.1538 19.207 23.7148 19.207C22.2759 19.207 21.1094 18.0405 21.1094 16.6016Z" fill="#BE4C1A"/>
<path d="M15.9961 25.5859C14.5571 25.5859 13.3906 24.4194 13.3906 22.9805C13.3906 21.5415 14.5571 20.375 15.9961 20.375C17.4351 20.375 18.6016 21.5415 18.6016 22.9805C18.6016 24.4194 17.4351 25.5859 15.9961 25.5859Z" fill="#FFEB98"/>
<path d="M15.8789 11.6211C14.4399 11.6211 13.2734 10.4546 13.2734 9.01562C13.2734 7.57666 14.4399 6.41016 15.8789 6.41016C17.3179 6.41016 18.4844 7.57666 18.4844 9.01562C18.4844 10.4546 17.3179 11.6211 15.8789 11.6211Z" fill="#BE4C1A"/>
</svg>

<svg xmlns="http://www.w3.org/2000/svg" width="32" height="32" fill="none" viewBox="0 0 32 32"><rect width="32" height="32" fill="#FFEB98" rx="4"/><path fill="#BE4C1A" d="M10.227 12.441a1 1 0 0 1 1-1h9.539a1 1 0 0 1 1 1v9.54a1 1 0 0 1-1 1h-9.54a1 1 0 0 1-1-1v-9.54Z"/><path fill="#BE4C1A" d="M20.766 21.98v1h-9.54v-1h9.54Zm0-9.539h-9.54v10.54a1 1 0 0 1-1-1v-9.54a1 1 0 0 1 .898-.995l.103-.005h9.539l.102.005a1 1 0 0 1 .898.995v9.54l-.005.102a1 1 0 0 1-.995.898V12.44Z"/><path fill="#BE4C1A" d="M5.688 16.73a2.605 2.605 0 1 1 5.21 0 2.605 2.605 0 0 1-5.21 0ZM21.11 16.602a2.605 2.605 0 1 1 5.21 0 2.605 2.605 0 0 1-5.21 0Z"/><path fill="#FFEB98" d="M15.996 25.586a2.605 2.605 0 1 1 0-5.211 2.605 2.605 0 0 1 0 5.21Z"/><path fill="#BE4C1A" d="M15.879 11.621a2.605 2.605 0 1 1 0-5.21 2.605 2.605 0 0 1 0 5.21Z"/></svg>
